.local/share/icons/Gruvbox-Plus-Dark/mimetypes/scalable/text-x-wxmathml.svg

<svg width="256" height="256" viewBox="0 0 256 256" fill="none" xmlns="http://www.w3.org/2000/svg">
<g opacity="0.4" filter="url(#filter0_f)">
<path d="M55.0839 15.5636H155.608L216.009 75.7129L216.011 224.609C216.011 233.52 208.749 240.737 199.838 240.737H55.0838C46.1734 240.737 39 233.564 39 224.654V31.6474C39 22.737 46.1734 15.5636 55.0838 15.5636H55.0839Z" fill="#282828"/>
</g>
<path d="M55.0839 15H155.608L216.009 75.1493L216.011 224.045C216.011 232.956 208.749 240.174 199.838 240.174H55.0838C46.1734 240.174 39 233 39 224.09V31.0838C39 22.1734 46.1734 15 55.0838 15H55.0839Z" fill="#ebdbb2"/>
<path opacity="0.2" d="M55.0839 15H155.608L216.009 75.1493L216.011 224.045C216.011 232.956 208.749 240.174 199.838 240.174H55.0838C46.1734 240.174 39 233 39 224.09V31.0838C39 22.1734 46.1734 15 55.0838 15H55.0839Z" fill="url(#paint0_linear)"/>
<path fill-rule="evenodd" clip-rule="evenodd" d="M155.609 22.9787H55.0839C50.58 22.9787 46.9787 26.5799 46.9787 31.0838V224.09C46.9787 228.594 50.5799 232.195 55.0838 232.195H199.838C204.371 232.195 208.032 228.521 208.032 224.046V75.1493L155.609 22.9787ZM155.608 15H55.0839C46.1735 15 39 22.1734 39 31.0838V224.09C39 233 46.1734 240.174 55.0838 240.174H199.838C208.749 240.174 216.011 232.956 216.011 224.045L216.009 75.1493L155.608 15Z" fill="url(#paint1_linear)"/>
<path fill-rule="evenodd" clip-rule="evenodd" d="M188 140.682L185.407 164.9H123.207V162.979L154.638 128.218L124.091 89.2425V87.3382H182.984V107.938H179.076C178.269 104.3 176.71 100.866 174.418 97.6392C172.125 94.4099 169.759 92.6017 167.298 92.2094C166.191 92.0223 164.63 91.8734 162.601 91.7981C160.555 91.7045 158.901 91.6491 157.604 91.6491H140.602L165.099 122.919V123.797L136.47 155.272H172.408C174.062 155.272 175.527 154.787 176.822 153.798C178.1 152.829 179.209 151.56 180.129 150.03C180.974 148.65 181.725 147.102 182.383 145.421C182.993 143.851 183.575 142.271 184.131 140.682H188ZM114.363 77.605V84.0444H106.972C104.27 84.0444 101.722 84.2977 99.3299 84.7843C96.9382 85.2908 94.6052 86.2052 92.3294 87.5277C90.229 88.7931 88.5175 90.5046 87.1942 92.6836C85.8726 94.8825 85.1915 97.5299 85.1915 100.642C85.1915 105.156 86.8251 108.601 90.0734 110.954C93.32 113.309 97.6185 114.496 102.986 114.496H111.232V120.47H100.069C93.8836 120.47 89.1589 121.773 85.9106 124.379C82.6623 126.987 81.0486 131.074 81.0486 136.659C81.0486 141.231 82.3719 144.771 85.0359 147.301C87.68 149.831 91.395 151.095 96.1412 151.095H103.666C108.373 151.095 111.932 152.379 114.363 154.967C116.794 157.555 118.02 160.998 118.02 165.338C118.02 170.007 116.017 174.269 112.01 178.102C108.004 181.954 103.22 183.862 97.6781 183.862C93.6908 183.862 90.8505 183.375 89.197 182.421C87.5252 181.45 86.6902 180.029 86.6902 178.16C86.6902 176.643 87.1561 175.436 88.069 174.522C89.0033 173.608 90.3845 173.14 92.2119 173.14C93.2819 173.14 94.2345 173.355 95.091 173.782C95.8909 174.164 96.6417 174.641 97.3272 175.203C97.9487 175.65 98.6687 176.254 99.5252 176.974C100.38 177.693 101.197 178.238 101.956 178.627C102.87 178.549 103.862 178.335 104.952 177.966C106.019 177.596 107.051 176.994 108.042 176.117C109.074 175.241 109.89 174.231 110.493 173.062C111.115 171.914 111.408 170.338 111.408 168.353C111.408 165.591 110.531 163.528 108.762 162.207C106.993 160.882 104.465 160.201 101.157 160.201H92.2698C85.7352 160.201 80.3691 158.217 76.2063 154.228C72.0254 150.24 69.925 145.297 69.925 139.402C69.925 136.21 70.5663 133.292 71.8301 130.646C73.1137 128.018 74.8251 125.703 77.0033 123.72C79.0458 121.869 81.3994 120.392 84.0237 119.281C86.6703 118.173 89.2168 117.473 91.6483 117.162V116.831C85.8726 115.878 81.4772 113.971 78.4822 111.13C75.4673 108.27 73.9702 104.865 73.9702 100.876C73.9702 98.619 74.4171 96.5749 75.3117 94.7468C76.2063 92.8988 77.4519 91.2436 79.0458 89.8044C80.5247 88.4811 82.2742 87.3341 84.2968 86.379C86.3441 85.4318 88.4565 84.6323 90.6179 83.9865V83.0339C89.101 83.072 87.1164 83.1316 84.6858 83.2475C82.2543 83.365 80.1738 83.4229 78.4243 83.4229C74.845 83.4229 72.2207 82.9164 70.5291 81.9051C68.835 80.9128 68 79.4728 68 77.605C68 76.1252 68.389 74.8417 69.1661 73.7708C69.9448 72.6825 71.2665 72.1379 73.1137 72.1379C74.8648 72.1379 76.3619 72.4872 77.5876 73.1691C78.7923 73.8252 79.9489 74.5661 81.0486 75.3862C82.0974 76.1783 83.161 76.9506 84.2389 77.7026C85.1534 78.325 86.533 78.6353 88.4 78.6353C92.485 78.6353 96.9192 78.5194 101.703 78.2869C106.468 78.0717 110.689 77.8383 114.363 77.605Z" fill="url(#paint2_linear)"/>
<path opacity="0.25" d="M155.608 17V61.2306C155.608 70.141 162.867 77.1605 171.777 77.1605L216.009 77.1493V75.1493L155.608 17Z" fill="#282828"/>
<path d="M155.608 15V59.2306C155.608 68.141 162.867 75.1605 171.777 75.1605L216.009 75.1493L155.608 15Z" fill="url(#paint3_linear)"/>
<defs>
<filter id="filter0_f" x="23.8778" y="0.441412" width="207.255" height="255.418" filterUnits="userSpaceOnUse" color-interpolation-filters="sRGB">
<feFlood flood-opacity="0" result="BackgroundImageFix"/>
<feBlend mode="normal" in="SourceGraphic" in2="BackgroundImageFix" result="shape"/>
<feGaussianBlur stdDeviation="7.5611" result="effect1_foregroundBlur"/>
</filter>
<linearGradient id="paint0_linear" x1="72.1366" y1="16.0339" x2="72.9729" y2="239.888" gradientUnits="userSpaceOnUse">
<stop stop-color="#83a598"/>
<stop offset="1" stop-color="#458588"/>
</linearGradient>
<linearGradient id="paint1_linear" x1="72.1366" y1="16.0339" x2="72.9729" y2="239.888" gradientUnits="userSpaceOnUse">
<stop stop-color="#83a598"/>
<stop offset="1" stop-color="#458588"/>
</linearGradient>
<linearGradient id="paint2_linear" x1="128" y1="183.863" x2="128" y2="72.137" gradientUnits="userSpaceOnUse">
<stop stop-color="#fb4934"/>
<stop offset="0.1" stop-color="#fb4934"/>
<stop offset="1" stop-color="#fe8019"/>
</linearGradient>
<linearGradient id="paint3_linear" x1="166.915" y1="15.2762" x2="167.09" y2="75.0844" gradientUnits="userSpaceOnUse">
<stop stop-color="#83a598"/>
<stop offset="1" stop-color="#458588"/>
</linearGradient>
</defs>
</svg>

<svg width="256" height="256" fill="none" version="1.1" viewBox="0 0 256 256" xmlns="http://www.w3.org/2000/svg">
  <path d="m55.08 15h100.5l60.4 60.15 2e-3 148.9c0 8.911-7.262 16.13-16.17 16.13h-144.8c-8.91 0-16.08-7.174-16.08-16.08v-193c0-8.91 7.173-16.08 16.08-16.08h1e-4z" fill="#ebdbb2"/>
  <path d="m55.08 15h100.5l60.4 60.15 2e-3 148.9c0 8.911-7.262 16.13-16.17 16.13h-144.8c-8.91 0-16.08-7.174-16.08-16.08v-193c0-8.91 7.173-16.08 16.08-16.08h1e-4z" fill="url(#paint0_linear)" opacity=".2"/>
  <path d="m155.6 22.98h-100.5c-4.504 0-8.105 3.601-8.105 8.105v193c0 4.504 3.601 8.105 8.105 8.105h144.8c4.533 0 8.194-3.674 8.194-8.149v-148.9l-52.42-52.17zm-1e-3 -7.979h-100.5c-8.91 0-16.08 7.173-16.08 16.08v193c0 8.91 7.173 16.08 16.08 16.08h144.8c8.911 0 16.17-7.218 16.17-16.13l-2e-3 -148.9-60.4-60.15z" clip-rule="evenodd" fill="url(#paint0_linear)" fill-rule="evenodd"/>
  <path d="m188 140.7-2.593 24.22h-62.2v-1.921l31.43-34.76-30.55-38.98v-1.904h58.89v20.6h-3.908c-0.807-3.638-2.366-7.072-4.658-10.3-2.293-3.229-4.659-5.038-7.12-5.43-1.107-0.1871-2.668-0.336-4.697-0.4113-2.046-0.0936-3.7-0.149-4.997-0.149h-17l24.5 31.27v0.878l-28.63 31.48h35.94c1.654 0 3.119-0.485 4.414-1.474 1.278-0.969 2.387-2.238 3.307-3.768 0.845-1.38 1.596-2.928 2.254-4.609 0.61-1.57 1.192-3.15 1.748-4.739h3.869zm-73.64-63.08v6.439h-7.391c-2.702 0-5.25 0.2533-7.642 0.7399-2.392 0.5065-4.725 1.421-7 2.743-2.1 1.265-3.812 2.977-5.135 5.156-1.322 2.199-2.003 4.846-2.003 7.958 0 4.514 1.634 7.959 4.882 10.31 3.247 2.355 7.545 3.542 12.91 3.542h8.246v5.974h-11.16c-6.185 0-10.91 1.303-14.16 3.909-3.248 2.608-4.862 6.695-4.862 12.28 0 4.572 1.323 8.112 3.987 10.64 2.644 2.53 6.359 3.794 11.11 3.794h7.525c4.707 0 8.266 1.284 10.7 3.872s3.657 6.031 3.657 10.37c0 4.669-2.003 8.931-6.01 12.76-4.006 3.852-8.79 5.76-14.33 5.76-3.987 0-6.828-0.487-8.481-1.441-1.672-0.971-2.507-2.392-2.507-4.261 0-1.517 0.4659-2.724 1.379-3.638 0.9343-0.914 2.316-1.382 4.143-1.382 1.07 0 2.023 0.215 2.879 0.642 0.7999 0.382 1.551 0.859 2.236 1.421 0.6215 0.447 1.342 1.051 2.198 1.771 0.8548 0.719 1.672 1.264 2.431 1.653 0.914-0.078 1.906-0.292 2.996-0.661 1.067-0.37 2.099-0.972 3.09-1.849 1.032-0.876 1.848-1.886 2.451-3.055 0.622-1.148 0.915-2.724 0.915-4.709 0-2.762-0.877-4.825-2.646-6.146-1.769-1.325-4.297-2.006-7.605-2.006h-8.887c-6.535 0-11.9-1.984-16.06-5.973-4.181-3.988-6.281-8.931-6.281-14.83 0-3.192 0.6413-6.11 1.905-8.756 1.284-2.628 2.995-4.943 5.173-6.926 2.042-1.851 4.396-3.328 7.02-4.439 2.647-1.108 5.193-1.808 7.625-2.119v-0.331c-5.776-0.953-10.17-2.86-13.17-5.701-3.015-2.86-4.512-6.265-4.512-10.25 0-2.257 0.4469-4.301 1.342-6.129 0.8946-1.848 2.14-3.503 3.734-4.942 1.479-1.323 3.228-2.47 5.251-3.425 2.047-0.9472 4.16-1.747 6.321-2.392v-0.9526c-1.517 0.0381-3.502 0.0977-5.932 0.2136-2.432 0.1175-4.512 0.1754-6.262 0.1754-3.579 0-6.204-0.5065-7.895-1.518-1.694-0.9923-2.529-2.432-2.529-4.3 0-1.48 0.389-2.763 1.166-3.834 0.7787-1.088 2.1-1.633 3.948-1.633 1.751 0 3.248 0.3493 4.474 1.031 1.205 0.6561 2.361 1.397 3.461 2.217 1.049 0.7921 2.112 1.564 3.19 2.316 0.9145 0.6224 2.294 0.9327 4.161 0.9327 4.085 0 8.519-0.1159 13.3-0.3484 4.765-0.2152 8.986-0.4486 12.66-0.6819z" clip-rule="evenodd" fill="url(#paint2_linear)" fill-rule="evenodd"/>
  <path d="m155.6 17v44.23c0 8.91 7.259 15.93 16.17 15.93l44.23-0.0112v-2l-60.4-58.15z" fill="#282828" opacity=".25"/>
  <path d="m155.6 15v44.23c0 8.91 7.259 15.93 16.17 15.93l44.23-0.0112-60.4-60.15z" fill="url(#paint3_linear)"/>
  <defs>
    <linearGradient id="paint0_linear" x1="72.14" x2="72.97" y1="16.03" y2="239.9" gradientUnits="userSpaceOnUse">
      <stop stop-color="#83a598" offset="0"/>
      <stop stop-color="#458588" offset="1"/>
    </linearGradient>
    <linearGradient id="paint2_linear" x1="128" x2="128" y1="183.9" y2="72.14" gradientUnits="userSpaceOnUse">
      <stop stop-color="#fb4934" offset="0"/>
      <stop stop-color="#fb4934" offset=".1"/>
      <stop stop-color="#fe8019" offset="1"/>
    </linearGradient>
    <linearGradient id="paint3_linear" x1="166.9" x2="167.1" y1="15.28" y2="75.08" gradientUnits="userSpaceOnUse">
      <stop stop-color="#83a598" offset="0"/>
      <stop stop-color="#458588" offset="1"/>
    </linearGradient>
  </defs>
</svg>
